X: 1
P: The Rendezvous
R: reel
C: from Matt Petrie, arr. T. Traub 11-29-2005
M: 4/4
L: 1/8
K: G
|: D| "G"G2 GD B,DGF|"C"EAAG "D"FGAB|"G"G2 GD B,DGF|"D"EGFA "G"BGG :|
c|"G"B/c/d dg Bdgd|"A"^c/d/e ea ceae|"G"B/c/d dg Bdgd|"D"egdg "G"BGGc |
"G"B/c/d dg Bdgd|"A"^c/d/e ea ceae|"G"dgfa gdBG|"D"EGFA "G"BGG |]

